X: 207
T: The Tongadale Reel
C:Farquhar McDonald (1995)
M:4/4
F:http://blackrosetheband.googlepages.com/ABCTUNES.ABC May 2009
R:Reel
K:Am
AB |\
cBcB AEAB | cBcB AFAc | BGDG EDEG | DEGB- B2AB || cBcB AEAB | cBcB AFAc |
BGDG EDEG | EDCB, A,2 :: A,B, | CA,EA, FA,EA, | GA,EA, FA,DC | B,G,DG, EG,DG, |
F2ED DCA,B, || CA,EA, FA,EA, | GA,EA, FA,DC | B,G,DG, EG,CB, | CA,A,G, A2- :|

%%sep 1 1 500

